X: 1
T: Blackbird, The
M: 12/8
L: 1/8
R: slide
K: Gmaj
|: DEF | 
G2 G g2 f g3 de=f | e2 d c2 B c3 c2 B |
c>Bc ABc B2 A GBc | d2 G F2 G A3 :|
|: ABc | 
d2 G GG/A/B A2 F D2 F | G2 B d2 c B3 GG/A/B |
c2 d efg d2 B G2 g |1 e2 c A2 F G3 :|2 e2 c AGF G3- G2 ||
K: Amaj
|: A | 
A2 A A2 a a3 e2 =g | f2 e d2 c d3- d2 c |
d2 d B2 d c3 BB/c/d | e2 A GA/B/c B3- B2 :|
|: c/d/ | 
e2 c A2 c B2 G E2 G | A2 c e2 d c3- c2 c |
d2 e f2 a e2 c A2 a | f2 d B2 G A3- A2 :|
